client/resources/iconsets/breeze/src/svg/16x16/icon_previewpanel_right.svg

<svg xmlns="http://www.w3.org/2000/svg" width="16" height="16" viewBox="0 0 16 16">
 <path style="fill:#19b5f1"
       d="M 10.931641 1 C 10.4152 1 10 1.4152002 10 1.9316406 L 10 14.068359 C 10 14.5848 10.4152 15 10.931641 15 L 15.068359 15 C 15.5848 15 16 14.5848 16 14.068359 L 16 1.9316406 C 16 1.4152002 15.5848 1 15.068359 1 L 10.931641 1 z M 11 2 L 15 2 L 15 14 L 11 14 L 11 2 z "
       />
 <path style="fill:#6d6d70"
       d="M 2 1 C 1.446 1 1 1.446 1 2 L 1 14 C 1 14.554 1.446 15 2 15 L 3 15 C 3.554 15 4 14.554 4 14 L 4 2 C 4 1.446 3.554 1 3 1 L 2 1 z M 5.9316406 1 C 5.4151999 1 5 1.4151999 5 1.9316406 L 5 2.0683594 C 5 2.5848001 5.4151999 3 5.9316406 3 L 8.0683594 3 C 8.5848001 3 9 2.5848001 9 2.0683594 L 9 1.9316406 C 9 1.4151999 8.5848001 1 8.0683594 1 L 5.9316406 1 z M 5.9316406 5 C 5.4151999 5 5 5.4151999 5 5.9316406 L 5 6.0683594 C 5 6.5848001 5.4151999 7 5.9316406 7 L 8.0683594 7 C 8.5848001 7 9 6.5848001 9 6.0683594 L 9 5.9316406 C 9 5.4151999 8.5848001 5 8.0683594 5 L 5.9316406 5 z M 5.9316406 9 C 5.4151999 9 5 9.4151999 5 9.9316406 L 5 10.068359 C 5 10.5848 5.4151999 11 5.9316406 11 L 8.0683594 11 C 8.5848001 11 9 10.5848 9 10.068359 L 9 9.9316406 C 9 9.4151999 8.5848001 9 8.0683594 9 L 5.9316406 9 z M 5.9316406 13 C 5.4151999 13 5 13.4152 5 13.931641 L 5 14.068359 C 5 14.5848 5.4151999 15 5.9316406 15 L 8.0683594 15 C 8.5848001 15 9 14.5848 9 14.068359 L 9 13.931641 C 9 13.4152 8.5848001 13 8.0683594 13 L 5.9316406 13 z "
       />
</svg>

<svg xmlns="http://www.w3.org/2000/svg" width="16" height="16"><path d="M10.932 1a.93.93 0 0 0-.932.932v12.137a.93.93 0 0 0 .932.932h4.137a.93.93 0 0 0 .932-.932V1.932A.93.93 0 0 0 15.068 1h-4.137zM11 2h4v12h-4V2z" fill="#19b5f1"/><path d="M2 1a1 1 0 0 0-1 1v12a1 1 0 0 0 1 1h1a1 1 0 0 0 1-1V2a1 1 0 0 0-1-1H2zm3.932 0A.93.93 0 0 0 5 1.932v.137A.93.93 0 0 0 5.932 3h2.137A.93.93 0 0 0 9 2.068v-.137A.93.93 0 0 0 8.068 1H5.932zm0 4A.93.93 0 0 0 5 5.932v.137A.93.93 0 0 0 5.932 7h2.137A.93.93 0 0 0 9 6.068v-.137A.93.93 0 0 0 8.068 5H5.932zm0 4A.93.93 0 0 0 5 9.932v.137a.93.93 0 0 0 .932.932h2.137A.93.93 0 0 0 9 10.068v-.137A.93.93 0 0 0 8.068 9H5.932zm0 4a.93.93 0 0 0-.932.932v.137a.93.93 0 0 0 .932.932h2.137A.93.93 0 0 0 9 14.068v-.137A.93.93 0 0 0 8.068 13H5.932z" fill="#6d6d70"/></svg>
